X:1
T:Title
%%score { 1 | 2 }
L:1/8
Q:1/4=81
M:6/8
K:G
V:1 treble nm="Grand Piano"
V:2 bass 
V:1
 [B,D][CE][B,D] [DB][CA][B,G] | AGE [B,D]3 | DEF GA[GB] | [Fc][Fd][GB] [FA]3 | BBB BAG | %5
w: William~J.~Kirkpatrick * * * * *|||||
 G[FA][=FB] [Ec]3 | [Ec][CE][Ec] [DB][B,G][DB] | AEF [B,G]3 | ddd d2 B | [FA][FA][GB] [Ac]3 | %10
w: |||||
 [Ac][Ac][Ac] [Ac]2 [FA] | BBc d3 | eee d2 B | ccc B2 G | [CEA][DEB][EAc] [DGB]2 [CDA] | %15
w: |||||
 [B,DG]2 [A,DF] [B,DG]3 |] %16
w: |
V:2
 [G,,G,][G,,G,][G,,G,] [G,,G,][G,,D,][G,,D,] | [C,E,C][C,E,C][C,G,C] [G,,G,]3 | %2
 [D,F,][D,G,^C][D,A,=C] [D,G,B,][D,F,D][D,G,] | [D,A,][D,A,][D,B,] [D,D]3 | %4
 [G,DG][G,DG][G,DG] [G,DG][G,CD][K:bass][G,B,D] | [E,B,][^D,C][=D,G,] [C,G,]3 | %6
 [C,G,][C,G,][C,G,] [G,,G,][G,,G,][G,,G,] | [D,F,D][D,G,^C][D,A,=C] [G,,G,]3 | %8
 [G,B,G][G,B,G][G,B,G] [G,B,G]2 [G,DG] | [D,D][D,D][D,D] [D,D]3 | [D,D][D,D][D,D] [D,D]2 [D,D] | %11
 [G,DG][G,DG][G,CA] [G,B,G]3 | [G,CG][G,CG][G,CG] [G,B,G]2 [G,B,G] | %13
 [G,EG][G,EG][G,EG] [G,DG]2[K:bass] [G,B,D] | C,C,C, D,2 D, | D,2 D, G,,3 |] %16

